X:34
T:Au coeur de ce monde - A238-1
C:J. Berthier
M:C
K:C
"Comme un choral"z6G,2||"Do"E4 E2C2|"Mim"G4 G2G2|"Fa"A2B2 c2A2|"Do"G4 "Sol"G4|"Lam"c2A2 "Sol"G2F2|
"Do"E4 F2G2|"Fa"A4 "Rem"F2E2|"Sol"D4 D2G,2|"Do"E4 E2C2|"Mim"G4 G2G2|"Fa"A2B2 c2A2|"Do"G4 "Sol"G2G2|"Lam"c4 "Sol"G2F2|
"Do"E6 G2|"Fa"A2A2 "Rem"F2E2|"Sol"D4 "Do"C3z/E/||"Lam"E7/E/ "Re"^F3/F/"Mi"^G3/G/|"Lam"A4 zE EE|"Fa"A2A2 "Sol"G2F2|
"Do"E4 E2z3/G/|"Mim"G7/G/ "Rem"A3/A/"Sol"B3/B/|"Do"c4 zG GG|"Lam"c2c2 "Si"B2A2|"Mim"G4 G2z3/G/|
"Fa"A7/A/ "Sol"G3/A/G3/F/|"Lam"E4 zE EE|"Mim"G2G2 "Fa"F2E2|"Sol"D4 D2G,2||
